libs/ui/packages/crypto-icons/src/svg/TBX.svg

<svg width="24" height="24" viewBox="0 0 24 24" fill="none">
<path d="M11.775 20.55C6.9285 20.55 3 16.6215 3 11.775C3 6.9285 6.9285 3 11.775 3C16.6215 3 20.55 6.9285 20.55 11.775C20.55 16.6215 16.6215 20.55 11.775 20.55ZM13.9425 14.775L11.775 11.775L9.6075 14.775L7.845 11.775L9.81 8.415H13.74L15.705 11.775L13.9425 14.775ZM14.5875 6.975H8.9625L6.1575 11.775L8.97 16.575H14.5875L17.3925 11.775L14.5875 6.975Z" fill="white"/>
<path d="M12 20.775C7.15351 20.775 3.22501 16.8465 3.22501 12C3.22501 7.15354 7.15351 3.22504 12 3.22504C16.8465 3.22504 20.775 7.15354 20.775 12C20.775 16.8465 16.8465 20.775 12 20.775ZM14.1675 15L12 12L9.83251 15L8.07001 12L10.035 8.64004H13.965L15.93 12L14.1675 15ZM14.8125 7.20004H9.18751L6.38251 12L9.19501 16.8H14.8125L17.6175 12L14.8125 7.20004Z" fill="#5244D4"/>
</svg>

<svg width="24" height="24" viewBox="0 0 24 24" fill="none"><path fill="#fff" d="M11.775 20.55A8.775 8.775 0 0 1 3 11.775 8.775 8.775 0 0 1 11.775 3a8.775 8.775 0 0 1 8.775 8.775 8.775 8.775 0 0 1-8.775 8.775m2.168-5.775-2.168-3-2.168 3-1.762-3 1.965-3.36h3.93l1.965 3.36zm.645-7.8H8.963l-2.805 4.8 2.812 4.8h5.618l2.804-4.8z"/><path fill="#5244d4" d="M12 20.775A8.775 8.775 0 0 1 3.225 12 8.775 8.775 0 0 1 12 3.225 8.775 8.775 0 0 1 20.775 12 8.775 8.775 0 0 1 12 20.775M14.168 15 12 12l-2.167 3-1.763-3 1.965-3.36h3.93L15.93 12zm.645-7.8H9.188L6.383 12l2.812 4.8h5.618l2.804-4.8z"/></svg>
